icon.svg

<!DOCTYPE svg PUBLIC "-//W3C//DTD SVG 1.1//EN" "http://www.w3.org/Graphics/SVG/1.1/DTD/svg11.dtd">
<!-- Uploaded to: SVG Repo, www.svgrepo.com, Transformed by: SVG Repo Mixer Tools -->
<svg width="800px" height="800px" viewBox="0 0 24 24" fill="none" xmlns="http://www.w3.org/2000/svg" stroke="">
<g id="SVGRepo_bgCarrier" stroke-width="0"/>
<g id="SVGRepo_tracerCarrier" stroke-linecap="round" stroke-linejoin="round"/>
<g id="SVGRepo_iconCarrier"> <path fill-rule="evenodd" clip-rule="evenodd" d="M5.43747 3L3.15175 7L5.43746 11H9.99111L12.2768 7L9.99111 3L5.43747 3ZM14.0089 6L11.4397 1.50386C11.2616 1.19229 10.9303 1 10.5714 1H4.85714C4.49829 1 4.16694 1.19229 3.9889 1.50386L1.13176 6.50386C0.956081 6.81129 0.956081 7.18871 1.13176 7.49614L3.70539 12L1.13176 16.5039C0.956081 16.8113 0.956081 17.1887 1.13176 17.4961L3.9889 22.4961C4.16694 22.8077 4.49829 23 4.85714 23H10.5714C10.9303 23 11.2616 22.8077 11.4397 22.4961L14.0089 18H19.1428C19.5017 18 19.833 17.8077 20.0111 17.4961L22.8682 12.4961C23.0439 12.1887 23.0439 11.8113 22.8682 11.5039L20.0111 6.50386C19.833 6.19229 19.5017 6 19.1428 6L14.0089 6ZM14.0089 16L11.7232 12L14.0089 8L18.5625 8L20.8482 12L18.5625 16H14.0089ZM12.2768 17L9.99111 13H5.43747L3.15175 17L5.43747 21H9.99111L12.2768 17Z" fill="#889FEA" data-darkreader-inline-fill="" style="--darkreader-inline-fill: var(--darkreader-background-889fea, #1f2a4f);"/> </g>
</svg>

<svg xmlns="http://www.w3.org/2000/svg" width="800" height="800" fill="none" viewBox="0 0 24 24"><path fill="#889FEA" fill-rule="evenodd" d="M5.44 3 3.15 7l2.29 4h4.55l2.29-4-2.29-4H5.44ZM14 6l-2.57-4.5a1 1 0 0 0-.87-.5H4.86a1 1 0 0 0-.87.5l-2.86 5a1 1 0 0 0 0 1L3.71 12l-2.58 4.5a1 1 0 0 0 0 1l2.86 5c.18.3.5.5.87.5h5.71a1 1 0 0 0 .87-.5l2.57-4.5h5.13a1 1 0 0 0 .87-.5l2.86-5a1 1 0 0 0 0-1L20 6.5a1 1 0 0 0-.87-.5h-5.13Zm0 10-2.29-4 2.29-4h4.55l2.29 4-2.29 4h-4.55Zm-1.73 1-2.29-4H5.44l-2.29 4 2.29 4h4.55l2.29-4Z" clip-rule="evenodd" style="--darkreader-inline-fill:var(--darkreader-background-889fea, #1f2a4f)"/></svg>
